X:6001
T:Fairy Dance, The
R:Reel
C:Nathaniel Gow, 1812
O:Scotland
M:4/4
L:1/8
Q:1/4=160
K:G
"G"B2BG "G"B2BG|"G"B2BG "D"FGAc|"G"B2BG "C"cBAG|"D"FDEF "G"GABc:|
|:"G"d2dB "C"e2eB|"D7"c2cA "G"d2dc|"Em"B2BG "Am"cBAG|1 "D7"FDEF "G"GABc:|2 "D7"FDEF "G"G3|]

